X:1
T:Merthyr Tydfil, LMD
T:Merthyr Tydfil, LMD
T:Joseph Parry, 1870
T:Public Domain Courtesy of the Cyber Hymnal™
C:Joseph Parry, 1870
Z:Public Domain
Z:Courtesy of the Cyber Hymnal™
%%score ( 1 2 ) ( 3 4 )
L:1/8
Q:1/4=115
M:3/4
K:Bb
V:1 treble 
V:2 treble 
V:3 bass 
V:4 bass 
V:1
 D2 G2 ^F2 | G4 D2 | [B,F]4 [A,C]2 | [B,D]6 | G2 A2 B2 | A4 D2 | [DF]4 [^C=E]2 | D6 | %8
 [B,D]2 [DG]2 [D^F]2 | [DG]4 [B,D]2 | [CF]4 C2 | [A,D]6 | [DG]2 [DA]2 [DB]2 | [EA]4 [DG]2 | %14
 [DG]4 [D^F]2 | [DG]6 | [DG]2 [DA]2 [DB]2 | [Ec]4 [Dc]2 | (B>A G2) [=EB]2 | [^FA]6 | %20
 D2 [Gd]2 [^Fc]2 | [GB]4 [^FA]2 | (G2 [^Fc]2) [GB]2 | [^FA]6 | D2 G2 ^F2 | G4 [B,D]2 | %26
 [B,F]4 [A,C]2 | [B,D]6 | [B,G]2 [EA]2 [DB]2 | A4 G2 | [DG]4 ^F2 | [B,G]6 |] %32
V:2
 D2 G2 ^F2 | G4 D2 | x6 | x6 | G2 A2 B2 | A4 D2 | x6 | D6 | x6 | x6 | x4 C2 | x6 | x6 | x6 | x6 | %15
 x6 | x6 | x6 | D4 x2 | x6 | D2 x4 | x6 | G2 x4 | x6 | D2 G2 ^F2 | G4 x2 | x6 | x6 | x6 | %29
 (D3 C) (B,C) | x4 (DC) | x6 |] %32
V:3
 D,2 G,2 ^F,2 | G,4 [G,,G,]2 | [F,,D,]4 [F,,F,]2 | [B,,F,]6 | G,2 A,2 B,2 | A,4 [D,F,]2 | %6
 [A,,A,]4 [A,,G,]2 | [D,F,]6 | [G,,G,]2 [B,,G,]2 [A,,C]2 | [G,,B,]4 [B,,G,]2 | [A,,F,]4 [E,G,]2 | %11
 [D,^F,]6 | [B,,G,]2 [D,^F,]2 G,2 | (G,2 ^F,2) ([B,,G,][C,A,]) | [D,B,]4 [D,A,]2 | [G,,B,]6 | %16
 [B,,G,]2 [D,^F,]2 (G,B,) | [G,A,]4 [^F,A,]2 | ([G,B,]>[A,C] [B,D]2) [G,^C]2 | [D,D]6 | %20
 [D,D]2 [B,D]2 [A,D]2 | [G,D]4 [CE]2 | D4 [G,D]2 | [D,D]6 | D,2 G,2 ^F,2 | G,4 [G,,G,]2 | %26
 [F,,D,]4 [F,,F,]2 | [B,,F,]6 | [E,G,]2 [C,^F,]2 [B,,G,]2 | (G,2 ^F,2) (G,A,) | [D,B,]4 [D,A,]2 | %31
 [G,,G,]6 |] %32
V:4
 D,2 G,2 ^F,2 | G,4 x2 | x6 | x6 | G,2 A,2 B,2 | A,4 x2 | x6 | x6 | x6 | x6 | x6 | x6 | x4 G,2 | %13
 C,4 x2 | x6 | x6 | x4 G,2 | x6 | x6 | x6 | x6 | x6 | (B,2 A,2) x2 | x6 | D,2 G,2 ^F,2 | G,4 x2 | %26
 x6 | x6 | x6 | D,4 E,2 | x6 | x6 |] %32

